Orbital Cannons/Orbital Napalm Barrage.svg

<svg id="HD2-ONP" xmlns="http://www.w3.org/2000/svg" width="126" height="126" viewBox="0 0 126 126">
  <defs>
    <style>
      .cls-1 {
        fill: #df6161;
      }

      .cls-1, .cls-2 {
        fill-rule: evenodd;
      }

      .cls-2 {
        fill: #fff;
      }
    </style>
  </defs>
  <path class="cls-1" d="M28.076,120H9a53.732,53.732,0,0,1,7.242-27H32.523C30.077,100.12,28.4,108.98,28.076,120Zm67.569,43h0ZM65,93H91.509a85.481,85.481,0,0,1,4.58,27H65V93Zm42.9-3H93.357c-0.42-1.046-.863-2.036-1.315-3H104s0.129-.631.345-1.709A53.99,53.99,0,0,1,107.9,90ZM77,80l7,7h4.926c0.5,0.99.97,1.989,1.4,3H65V77h8l3.727-4.659c0.091,0.064.183,0.129,0.273,0.194V80ZM35.5,93H62v27H30.912A85.548,85.548,0,0,1,35.5,93Zm1.182-3c0.432-1.011.9-2.01,1.4-3H42l7.118-8.909L49,74l3,3H62V90H36.681Zm-1.733-3c-0.452.964-.894,1.954-1.313,3H18.1a53.921,53.921,0,0,1,3.386-4.515L23,87H34.948Zm74.81,6A53.738,53.738,0,0,1,117,120H98.924c-0.329-11.02-2-19.88-4.454-27h15.288Z"/>
  <path id="Shape_23_copy_2" data-name="Shape 23 copy 2" class="cls-2" d="M53,73L47,63,46,52l10-9V27L70.108,41.7,70,56l4.649-11.362L81,62,71,73H66V69l4-4-6-6V52L54,63l4,6,1,4H53Z"/>
  <path id="Shape_23_copy_3" data-name="Shape 23 copy 3" class="cls-2" d="M25.811,84.592L20.89,78.968V69.829L27.92,63.5V52.254L37.838,62.59,37.762,72.641l3.268-7.987L46,76l-7.535,8.592H34.95V81.78l2.812-2.812L33.544,74.75V69.829l-7.03,7.733,2.812,4.218,0.7,2.812H25.811Z"/>
  <path id="Shape_23_copy_4" data-name="Shape 23 copy 4" class="cls-2" d="M85.811,83.592L80.89,77.968V68.829L87.92,62.5V51.254L97.838,61.59,97.762,71.641l3.268-7.987L105.5,76.562l-7.03,7.03H94.95V80.78l2.812-2.812L93.544,73.75V68.829l-7.03,7.733,2.812,4.218,0.7,2.812H85.811Z"/>
</svg>

<svg xmlns="http://www.w3.org/2000/svg" viewBox="0 0 126 126">
<defs><style>.cls-2{fill-rule:evenodd;fill:#fff}</style></defs>
<path d="M28.08 120H9a53.73 53.73 0 0 1 7.24-27h16.28c-2.44 7.12-4.12 15.98-4.44 27Zm67.56 43ZM65 93h26.5a85.48 85.48 0 0 1 4.59 27H65V93Zm42.9-3H93.36a57.47 57.47 0 0 0-1.32-3H104l.34-1.7a53.99 53.99 0 0 1 3.56 4.7ZM77 80l7 7h4.93c.5.99.97 1.99 1.4 3H65V77h8l3.73-4.66.27.2V80ZM35.5 93H62v27H30.91a85.55 85.55 0 0 1 4.59-27Zm1.18-3c.43-1.01.9-2.01 1.4-3H42l7.12-8.9L49 74l3 3h10v13H36.68Zm-1.73-3c-.45.96-.9 1.95-1.31 3H18.1a53.92 53.92 0 0 1 3.39-4.51L23 87h11.95Zm74.8 6a53.74 53.74 0 0 1 7.25 27H98.92c-.32-11.02-2-19.88-4.45-27h15.29Z" style="fill-rule:evenodd;fill:#de7b6c"/>
<path id="Shape_23_copy_2" data-name="Shape 23 copy 2" class="cls-2" d="m53 73-6-10-1-11 10-9V27l14.1 14.7L70 56l4.65-11.36L81 62 71 73h-5v-4l4-4-6-6v-7L54 63l4 6 1 4h-6Z"/>
<path id="Shape_23_copy_3" data-name="Shape 23 copy 3" class="cls-2" d="m25.81 84.6-4.92-5.63v-9.14l7.03-6.33V52.25l9.92 10.34-.08 10.05 3.27-7.99L46 76l-7.54 8.6h-3.51v-2.82l2.81-2.81-4.22-4.22v-4.92l-7.03 7.73 2.82 4.22.7 2.81H25.8Z"/>
<path id="Shape_23_copy_4" data-name="Shape 23 copy 4" class="cls-2" d="m85.81 83.6-4.92-5.63v-9.14l7.03-6.33V51.25l9.92 10.34-.08 10.05 3.27-7.99 4.47 12.91-7.03 7.03h-3.52v-2.81l2.81-2.81-4.22-4.22v-4.92l-7.03 7.73 2.82 4.22.7 2.81H85.8Z"/>
</svg>
